X:1
T:David Roberts
T:Catherine
%%score { ( 1 2 ) | ( 3 4 ) }
L:1/8
Q:1/4=184
M:4/2
K:Eb
V:1 treble 
V:2 treble 
V:3 bass 
V:4 bass 
V:1
"^Presto" (C2 D2) (E2 F2) G4 c4 | =B4 d4 G4 G4 | A4 G4 F4 E4 | D4 D4 C8 | (C2 D2) (E2 F2) G4 c4 | %5
 =B4 d4 G4 G4 | A4 G4 (c2 e2) (d2 c2) | B4 =A4 G8 | G4 G4 G4 G4 | G4 F4 B4 G4 | c4 =B4 c4 (G2 F2) | %11
 E4 D4 C8 | C8 C8 |] %13
V:2
 E4 (C2 D2) E4 E4 | D4 D4 E4 E4 | C4 C4 =B,4 C4 | C4 =B,4 C8 | E4 (C2 D2) E4 E4 | D4 D4 E4 E4 | %6
 C4 (C2 D2) (E2 G4) E2 | D4 C4 B,8 | E4 D4 E4 E4 | E4 D4 E4 G4 | E4 D4 C4 C4 | C4 =B,4 C8 | %12
 A,8 G,8 |] %13
V:3
 (E,2 F,2) G,4 G,4 G,4 | G,4 =B,4 C4 C4 | C4 G,4 G,4 G,4 | G,4 F,4 E,8 | (E,2 F,2) G,4 G,4 G,4 | %5
 G,4 =B,4 C4 C4 | C4 (C2 =B,2) (C2 G,4) G,2 | G,4 ^F,4 G,8 | G,4 =B,4 C4 C4 | B,4 B,4 B,4 B,4 | %10
 E,4 F,4 G,4 (G,2 A,2) | G,4 F,4 E,8 | F,8 =E,8 |] %13
V:4
 C,4 C,4 (C,2 D,2) (E,2 F,2) | G,4 F,4 E,4 C,4 | F,4 E,4 D,4 C,4 | G,4 G,,4 C,8 | %4
 C,4 C,4 (C,2 D,2) (E,2 F,2) | G,4 F,4 E,4 C,4 | F,4 (E,2 D,2) C,4 (=B,,2 C,2) | D,4 D,4 G,,8 | %8
 C,4 G,4 E,4 C,4 | E,4 B,4 G,4 E,4 | C,4 D,4 (E,2 D,2) (E,2 F,2) | G,4 G,,4 C,8 | F,,8 C,8 |] %13

